X:1
T:Over That Jasper Sea
T:Over That Jasper Sea
T:Charles Eddy Leslie
T:Neva E. Parkhill, 1880
T:Public Domain Courtesy of the Cyber Hymnal™
C:Charles Eddy Leslie
Z:Public Domain
Z:Courtesy of the Cyber Hymnal™
%%score ( 1 2 ) ( 3 4 )
L:1/8
Q:1/4=88
M:4/4
K:A
V:1 treble 
V:2 treble 
V:3 bass 
V:4 bass 
V:1
 [CE]>[CE] [CE][CE] [CE][CE] | [DF]2 [DE] [CA]3 | [Ec]>[Ec] [Ec][Ec] [DB][CA] | %3
w: 1.~O- ver the tide of that|jas- per sea,|Soft- ly a sweet voice is|
w: 2.~O- ver the tide of that|jas- per sea,|Soft- ly the ac- cents are|
w: 3.~O- ver the tide of that|jas- per sea,|Com- eth a vi- sion of|
 [CA][DB][Ec] [DB]3 | [CE]>[CE] [CE][CE] [CE][CE] | [DF][DF][DE] [CA]3 | %6
w: call- ing to me;|Lov- ing and ten- der, be-|seech- ing its tone,|
w: plead- ing with me;|Plead- ing so gent- ly in|mu- sic- al tone,|
w: beau- ty to me;|An- gels are beckon- ing a-|down from the dome,|
 [Fd]>[Ec] [DB] [Ec]2 [CA] | [DG][DF][DG] [CA]3 ||"^Refrain" [Ac]2 [Ac][Ac] [AB]A | %9
w: Dear- ly be- loved, O|why long- er roam?||
w: Dear- ly be- loved, O|why long- er roam?|Call- ing, call- ing, yes,|
w: Dear- ly be- loved, O|why long- er roam?||
 [Ae][Ae][Ae] [Ae]3 | [Ec]>[Ec] [Ec][Ec] [EB][EA] | [GB]2 [Ac] [GB]3 | [Ac]2 [Ac][Ac] [AB]A | %13
w: ||||
w: call- ing for me,|O- ver the tide of that|jas- per sea,|Call- ing, call- ing, yes,|
w: ||||
 [Ae][Ae][Ae] [Ae]3 | [Ae]>[Ad] [Ec][Fd] [Fc][FB] | [EF]2 [DG] [CA]3 |] %16
w: |||
w: call- ing for me,|O- ver the tide of that|jas- per sea.|
w: |||
V:2
 x6 | x6 | x6 | x6 | x6 | x6 | x6 | x6 || x5 A | x6 | x6 | x6 | x5 A | x6 | x6 | x6 |] %16
V:3
 [A,,A,]6 | [A,,A,]6 | [A,,A,]6 | [A,,A,]3 [E,,E,]3 | [A,,A,]6 | [A,,A,]6 | D,3 A,,3 | E,3 A,,3 || %8
 [A,E]2 [A,E][A,E] [A,D][E,C] | [A,,C][C,C][E,C] [A,C]3 | [A,E]>[A,E] [A,E][A,E] [A,E][F,E] | %11
 [E,E]2 [E,E] [E,E]3 | [A,E]2 [A,E][A,E] [A,D][E,C] | [A,,C][C,C][E,C] [A,C]3 | %14
 [A,C]>[A,B,] A,[D,A,] [D,A,][D,A,] | [E,B,]2 E, [A,,E,]3 |] %16
V:4
 x6 | x6 | x6 | x6 | x6 | x6 | x6 | x6 || x6 | x6 | x6 | x6 | x6 | x6 | x2 A, x3 | x2 E, x3 |] %16

